my-blog/src/components/images/luciano8bit-block.svg

<svg height="1958.955" viewBox="0 0 1408 1958.955" width="1408" xmlns="http://www.w3.org/2000/svg" xmlns:xlink="http://www.w3.org/1999/xlink"><clipPath id="a"><path d="m0 0h1408v1958.955h-1408z"/></clipPath><g clip-path="url(#a)"><path d="m673.392 734.608h734.608v-734.608h-734.608zm61.216-673.388h612.176v612.172h-612.176z" fill="#2a2a2a"/><path d="m734.608 673.392v-61.216h550.959v-550.956h61.217v612.172z" fill="#744e26"/><path d="m795.824 122.437h489.739v489.739h-489.739z" fill="#fbd800"/><g fill="#2a2a2a"><path d="m1101.91 244.874h61.216v61.216h-61.216z"/><path d="m1040.694 306.09h61.216v61.216h-61.216z"/><path d="m979.478 367.306h61.216v61.216h-61.216z"/><path d="m918.261 428.527h61.217v61.216h-61.217z"/><path d="m857.041 183.657h61.216v61.217h-61.216z"/><path d="m1163.131 489.743h61.216v61.216h-61.216z"/></g><path d="m1163.131 1346.784v61.216h-61.217v244.869h61.217 61.216v-306.085z" fill="#744e26"/><path d="m550.955 1591.653h-122.437v61.216h-61.216v122.437h122.437v-61.216h61.216z" fill="#744e26"/><path d="m918.261 1408h-61.216v-61.216h61.216zm61.217 0h-61.217v61.216h61.217zm122.432 61.216v183.653h-122.432-122.437v61.217h-122.433-183.653v-183.649h122.437v-122.437h61.216v61.216h183.653v61.221h61.217v-61.221zm-306.086 61.221h-61.216v61.216h61.216zm-183.648-122.437h61.216v-61.216h-61.216z" fill="#4ec2c8"/><path d="m918.261 918.261v-61.216h-428.518v61.216h-61.221v367.302h122.437v-61.216h-61.216v-122.433h61.216v122.433h61.217v-122.433h122.432v-122.436h183.653v61.22h61.217v-122.437z" fill="#744e26"/><path d="m979.478 918.265h61.216v61.217h-61.216z" fill="#2a2a2a"/><path d="m612.171 1408h61.217v122.437h-183.649v-61.217h-122.437v-122.436h244.869zm367.307 61.22h-61.217v61.217h61.217zm-244.874 122.433h61.216v-61.216h-61.216zm244.874-612.171v61.216h61.216v122.433h-61.216v183.653h-61.221v61.216h122.437v-61.216h61.216v-61.217h61.216v-61.22-122.433-122.432zm-122.437 367.302h-183.653v61.216h61.216v61.22h183.653v-61.22h-61.216z" fill="#fbd800"/><path d="m1224.347 1285.563v-489.734h-61.216-734.609v61.216h-61.216v428.518h-183.653v61.221h-61.22v183.649h244.873v61.22h-122.437v61.216h-61.216v61.217h61.216v61.22h61.217v61.216h122.436v61.217h61.217v-61.217h61.216v-61.216h428.523v-61.22h306.085v-428.523zm0 367.306h-367.306v61.217h-367.302v61.22h-122.433v-122.437h61.216v-61.216h122.433v-61.22h-61.216v-61.217h-306.086v-61.216h61.216v-61.216h122.437 183.649v-61.221h-122.433v-183.649-183.653h61.217v-61.216h428.522v61.216h61.217v-61.216h183.653v428.518h-61.221v61.221h-61.216v61.216h-61.216v61.216h122.432v-61.216h61.221v-61.216h61.216z" fill="#2a2a2a"/><path d="m857.041 1101.914h-61.217v-61.216h61.217zm-673.388 612.172h-61.216v61.216h61.216zm183.653 244.869h61.216v-61.216h-61.216zm-183.653-61.216h61.216v-61.217h-61.216zm-183.653 0h61.216v-61.217h-61.216zm979.478-673.392v-61.216h-183.654v61.216h-61.216v122.437h122.433 122.437v-61.221h-122.437v-61.216z" fill="#2a2a2a"/><path d="m795.825 122.437h489.738v-61.217h-550.955v61.217 489.739h61.217z" fill="#fff"/><path d="m795.824 1040.698h122.436v-61.216h-122.436-61.216v122.432h61.216zm61.217 61.216h-61.217v61.217h244.872v-61.217h-.002v-61.216h-183.653zm-306.086 122.433h183.653v122.437h-183.653zm-61.216-122.433h61.216v122.433h-61.216zm122.437 0h183.648v122.433h-183.648zm244.865 122.433h122.437v61.216h-122.437z" fill="#fff" fill-rule="evenodd"/><path d="m244.869 1469.22h122.433v-122.436h-122.433v61.218h-61.216v61.218z" fill="#fff"/><path d="m1163.126 918.265h.005v-61.22h-183.653v61.22h61.218v61.217h122.43z" fill="#fff"/></g></svg>

<?xml version="1.0" standalone="no"?><!-- Generator: Gravit.io --><svg xmlns="http://www.w3.org/2000/svg" xmlns:xlink="http://www.w3.org/1999/xlink" style="isolation:isolate" viewBox="0 0 1408 1958.955" width="1408" height="1958.955"><defs><clipPath id="_clipPath_hFJuaAHyjG3K2wuWG8g9N0YbOdXg7dyW"><rect width="1408" height="1958.955"/></clipPath></defs><g clip-path="url(#_clipPath_hFJuaAHyjG3K2wuWG8g9N0YbOdXg7dyW)"><g><path d=" M 673.392 734.608 L 1408 734.608 L 1408 0 L 673.392 0 L 673.392 734.608 Z  M 734.608 61.22 L 1346.784 61.22 L 1346.784 673.392 L 734.608 673.392 L 734.608 61.22 Z " fill="rgb(42,42,42)"/><path d=" M 734.608 673.392 L 734.608 612.176 L 1285.567 612.176 L 1285.567 61.22 L 1346.784 61.22 L 1346.784 673.392 L 734.608 673.392 Z " fill="rgb(116,78,38)"/><path d=" M 795.824 122.437 L 1285.563 122.437 L 1285.563 612.176 L 795.824 612.176 L 795.824 122.437 Z " fill="rgb(251,216,0)"/><path d=" M 1101.91 244.874 L 1163.126 244.874 L 1163.126 306.09 L 1101.91 306.09 L 1101.91 244.874 Z " fill="rgb(42,42,42)"/><path d=" M 1040.694 306.09 L 1101.91 306.09 L 1101.91 367.306 L 1040.694 367.306 L 1040.694 306.09 Z " fill="rgb(42,42,42)"/><path d=" M 979.478 367.306 L 1040.694 367.306 L 1040.694 428.522 L 979.478 428.522 L 979.478 367.306 Z " fill="rgb(42,42,42)"/><path d=" M 918.261 428.527 L 979.478 428.527 L 979.478 489.743 L 918.261 489.743 L 918.261 428.527 Z " fill="rgb(42,42,42)"/><path d=" M 857.041 183.657 L 918.257 183.657 L 918.257 244.874 L 857.041 244.874 L 857.041 183.657 Z " fill="rgb(42,42,42)"/><path d=" M 1163.131 489.743 L 1224.347 489.743 L 1224.347 550.959 L 1163.131 550.959 L 1163.131 489.743 Z " fill="rgb(42,42,42)"/><path d=" M 1163.131 1346.784 L 1163.131 1408 L 1101.914 1408 L 1101.914 1652.869 L 1163.131 1652.869 L 1224.347 1652.869 L 1224.347 1346.784 L 1163.131 1346.784 Z " fill="rgb(116,78,38)"/><path d=" M 550.955 1591.653 L 428.518 1591.653 L 428.518 1652.869 L 367.302 1652.869 L 367.302 1775.306 L 489.739 1775.306 L 489.739 1714.09 L 550.955 1714.09 L 550.955 1591.653 Z " fill="rgb(116,78,38)"/><path d=" M 918.261 1408 L 857.045 1408 L 857.045 1346.784 L 918.261 1346.784 L 918.261 1408 Z  M 979.478 1408 L 918.261 1408 L 918.261 1469.216 L 979.478 1469.216 L 979.478 1408 Z  M 1101.91 1469.216 L 1101.91 1652.869 L 979.478 1652.869 L 857.041 1652.869 L 857.041 1714.086 L 734.608 1714.086 L 550.955 1714.086 L 550.955 1530.437 L 673.392 1530.437 L 673.392 1408 L 734.608 1408 L 734.608 1469.216 L 918.261 1469.216 L 918.261 1530.437 L 979.478 1530.437 L 979.478 1469.216 L 1101.91 1469.216 Z  M 795.824 1530.437 L 734.608 1530.437 L 734.608 1591.653 L 795.824 1591.653 L 795.824 1530.437 Z  M 612.176 1408 L 673.392 1408 L 673.392 1346.784 L 612.176 1346.784 L 612.176 1408 Z " fill="rgb(78,194,200)"/><path d=" M 918.261 918.261 L 918.261 857.045 L 489.743 857.045 L 489.743 918.261 L 428.522 918.261 L 428.522 1285.563 L 550.959 1285.563 L 550.959 1224.347 L 489.743 1224.347 L 489.743 1101.914 L 550.959 1101.914 L 550.959 1224.347 L 612.176 1224.347 L 612.176 1101.914 L 734.608 1101.914 L 734.608 979.478 L 918.261 979.478 L 918.261 1040.698 L 979.478 1040.698 L 979.478 918.261 L 918.261 918.261 Z " fill="rgb(116,78,38)"/><path d=" M 979.478 918.265 L 1040.694 918.265 L 1040.694 979.482 L 979.478 979.482 L 979.478 918.265 Z " fill="rgb(255,255,255)"/><path d=" M 612.171 1408 L 673.388 1408 L 673.388 1530.437 L 489.739 1530.437 L 489.739 1469.22 L 367.302 1469.22 L 367.302 1346.784 L 612.171 1346.784 L 612.171 1408 Z  M 979.478 1469.22 L 918.261 1469.22 L 918.261 1530.437 L 979.478 1530.437 L 979.478 1469.22 Z  M 734.604 1591.653 L 795.82 1591.653 L 795.82 1530.437 L 734.604 1530.437 L 734.604 1591.653 Z  M 979.478 979.482 L 979.478 1040.698 L 1040.694 1040.698 L 1040.694 1163.131 L 979.478 1163.131 L 979.478 1346.784 L 918.257 1346.784 L 918.257 1408 L 1040.694 1408 L 1040.694 1346.784 L 1101.91 1346.784 L 1101.91 1285.567 L 1163.126 1285.567 L 1163.126 1224.347 L 1163.126 1101.914 L 1163.126 979.482 L 979.478 979.482 Z  M 857.041 1346.784 L 673.388 1346.784 L 673.388 1408 L 734.604 1408 L 734.604 1469.22 L 918.257 1469.22 L 918.257 1408 L 857.041 1408 L 857.041 1346.784 Z " fill="rgb(251,216,0)"/><path d=" M 1224.347 1285.563 L 1224.347 795.829 L 1163.131 795.829 L 428.522 795.829 L 428.522 857.045 L 367.306 857.045 L 367.306 1285.563 L 183.653 1285.563 L 183.653 1346.784 L 122.433 1346.784 L 122.433 1530.433 L 367.306 1530.433 L 367.306 1591.653 L 244.869 1591.653 L 244.869 1652.869 L 183.653 1652.869 L 183.653 1714.086 L 244.869 1714.086 L 244.869 1775.306 L 306.086 1775.306 L 306.086 1836.522 L 428.522 1836.522 L 428.522 1897.739 L 489.739 1897.739 L 489.739 1836.522 L 550.955 1836.522 L 550.955 1775.306 L 979.478 1775.306 L 979.478 1714.086 L 1285.563 1714.086 L 1285.563 1285.563 L 1224.347 1285.563 Z  M 1224.347 1652.869 L 857.041 1652.869 L 857.041 1714.086 L 489.739 1714.086 L 489.739 1775.306 L 367.306 1775.306 L 367.306 1652.869 L 428.522 1652.869 L 428.522 1591.653 L 550.955 1591.653 L 550.955 1530.433 L 489.739 1530.433 L 489.739 1469.216 L 183.653 1469.216 L 183.653 1408 L 244.869 1408 L 244.869 1346.784 L 367.306 1346.784 L 550.955 1346.784 L 550.955 1285.563 L 428.522 1285.563 L 428.522 1101.914 L 428.522 918.261 L 489.739 918.261 L 489.739 857.045 L 918.261 857.045 L 918.261 918.261 L 979.478 918.261 L 979.478 857.045 L 1163.131 857.045 L 1163.131 1285.563 L 1101.91 1285.563 L 1101.91 1346.784 L 1040.694 1346.784 L 1040.694 1408 L 979.478 1408 L 979.478 1469.216 L 1101.91 1469.216 L 1101.91 1408 L 1163.131 1408 L 1163.131 1346.784 L 1224.347 1346.784 L 1224.347 1652.869 Z " fill="rgb(42,42,42)"/><path d=" M 857.041 1101.914 L 795.824 1101.914 L 795.824 1040.698 L 857.041 1040.698 L 857.041 1101.914 Z  M 183.653 1714.086 L 122.437 1714.086 L 122.437 1775.302 L 183.653 1775.302 L 183.653 1714.086 Z  M 367.306 1958.955 L 428.522 1958.955 L 428.522 1897.739 L 367.306 1897.739 L 367.306 1958.955 Z  M 183.653 1897.739 L 244.869 1897.739 L 244.869 1836.522 L 183.653 1836.522 L 183.653 1897.739 Z  M 0 1897.739 L 61.216 1897.739 L 61.216 1836.522 L 0 1836.522 L 0 1897.739 Z  M 979.478 1224.347 L 979.478 1163.131 L 795.824 1163.131 L 795.824 1224.347 L 734.608 1224.347 L 734.608 1346.784 L 857.041 1346.784 L 979.478 1346.784 L 979.478 1285.563 L 857.041 1285.563 L 857.041 1224.347 L 979.478 1224.347 Z " fill="rgb(42,42,42)"/><path d=" M 795.825 122.437 L 1285.563 122.437 L 1285.563 61.22 L 734.608 61.22 L 734.608 122.437 L 734.608 612.176 L 795.825 612.176 L 795.825 122.437 Z " fill="rgb(255,255,255)"/><path d=" M 795.824 1040.698 L 918.26 1040.698 L 918.26 979.482 L 795.824 979.482 L 795.824 979.482 L 795.824 979.482 L 795.824 979.482 L 734.608 979.482 L 734.608 1101.914 L 795.824 1101.914 L 795.824 1101.914 L 795.824 1040.698 L 795.824 1040.698 L 795.824 1040.698 L 795.824 1040.698 L 795.824 1040.698 Z  M 857.041 1101.914 L 795.824 1101.914 L 795.824 1101.914 L 795.824 1163.131 L 1040.696 1163.131 L 1040.696 1101.914 L 1040.694 1101.914 L 1040.694 1040.698 L 857.041 1040.698 L 857.041 1101.914 L 857.041 1101.914 L 857.041 1101.914 L 857.041 1101.914 L 857.041 1101.914 L 857.041 1101.914 Z  M 550.955 1224.347 L 734.608 1224.347 L 734.608 1346.784 L 550.955 1346.784 L 550.955 1224.347 L 550.955 1224.347 L 550.955 1224.347 L 550.955 1224.347 Z  M 489.739 1101.914 L 550.955 1101.914 L 550.955 1224.347 L 489.739 1224.347 L 489.739 1101.914 L 489.739 1101.914 L 489.739 1101.914 Z  M 612.176 1101.914 L 795.824 1101.914 L 795.824 1224.347 L 612.176 1224.347 L 612.176 1101.914 L 612.176 1101.914 Z  M 857.041 1224.347 L 979.478 1224.347 L 979.478 1285.563 L 857.041 1285.563 L 857.041 1224.347 Z " fill-rule="evenodd" fill="rgb(255,255,255)"/><path d=" M 244.869 1469.22 L 367.302 1469.22 L 367.302 1346.784 L 244.869 1346.784 L 244.869 1408.002 L 183.653 1408.002 L 183.653 1469.22 L 244.869 1469.22 L 244.869 1469.22 Z " fill="rgb(255,255,255)"/><path d=" M 1163.126 918.265 L 1163.131 918.265 L 1163.131 857.045 L 979.478 857.045 L 979.478 918.265 L 1040.696 918.265 L 1040.696 979.482 L 1163.126 979.482 L 1163.126 918.265 Z " fill="rgb(255,255,255)"/></g></g></svg>
